X:227
T:Guiry's Reel
B:Joyce, P. W.; "Old Irish Folk Music and Songs"
R:reel
O:Irish
L:1/8
M:C
K:D
d2 dA FGAF|d2 dA cdef|d2 dA FGAF|E2 ed cdef:|
d2 ag fgaf|d2 ag fgab|d2 ag fgaf|gfed cdef|
d2 ag fgaf|d2 ag fgea|bgaf gdBG|E2 ed cdef||
